svg/printer_pos_refresh_outline.svg

<svg xmlns="http://www.w3.org/2000/svg" viewBox="0 0 24 24"><path d="M7 15v-2h4v2zm15 3.5v-4l-1.17 1.17A4 4 0 0 0 18 14.5c-2.21 0-4 1.79-4 4s1.79 4 4 4c1.68 0 3.12-1.03 3.71-2.5H20a2.5 2.5 0 1 1-.23-3.27L18 18.5zM12.18 17c-.11.5-.18 1-.18 1.5 0 .17 0 .33.03.5H4v-7a2 2 0 0 1 2-2h1V4h10v6h1a2 2 0 0 1 2 2H6v5zM9 10h6V6H9z"/></svg>

<svg xmlns="http://www.w3.org/2000/svg" id="mdi-printer-pos-refresh-outline" viewBox="0 0 24 24"><path d="M7 15V13H11V15H7M22 18.5V14.5L20.83 15.67C20.11 14.95 19.11 14.5 18 14.5C15.79 14.5 14 16.29 14 18.5S15.79 22.5 18 22.5C19.68 22.5 21.12 21.47 21.71 20H20C19.54 20.61 18.82 21 18 21C16.62 21 15.5 19.88 15.5 18.5S16.62 16 18 16C18.69 16 19.32 16.28 19.77 16.73L18 18.5H22M12.18 17C12.07 17.5 12 18 12 18.5C12 18.67 12 18.83 12.03 19H4V12C4 10.9 4.89 10 6 10H7V4H17V10H18C19.11 10 20 10.9 20 12H6V17H12.18M9 10H15V6H9V10Z" /></svg>
